X: 68
T: Denis Murphy's
B: begged borrowed and stolen
M:12/8
L:1/8
R: slide
Q: 3/8=100
K:Dmajor
V:1 
B|"D" A2 D EFD E2 A A2 f|"G" g2 e "(D)" f2 d "A" e2 d Bcd|
 "D" A2 D EFD E2 A A2 f|"D" a2 f "A" efe "D" d3 d2:|
 A|"D" d2 e f3 "G" gfe "D" f3|"G" gfe "D" f2 d "A" e2 d B2 A|
 "D" d2 e f3 "G" gfe "D" f2 g|1 "D" a2 f "A" efe "D" d3 d2:|2 "D" a2 f "A" efe "D" d3 dcB||
% abcbook-tune_id 62828a3aec019a5165d094bf


% abcbook-boost 0
% abcbook-tablature 
% abcbook-transpose 
% abcbook-lastupdated 1652725431100
% abcbook-soundfonts 
% abcbook-repeats 3
% abc-sessionorg_id 159
% abc-sessionorg_setting 0
% abc-sessionorg_setting_id 35527
% abc-boost 0

